Suru++-Ubuntu/status/24/transmission-panel.svg

<!-- Created with Inkscape (http://www.inkscape.org/) -->
<svg width="24" height="24" version="1.1" xmlns="http://www.w3.org/2000/svg" xmlns:xlink="http://www.w3.org/1999/xlink">
 <path d="m7.1750001 4c-0.6648001 0-1.2 0.5352-1.2 1.2s0.5351999 1.2 1.2 1.2h3.6374999l-0.075 4.8h-4.9874999l-2.2500001 9.6v1.2h16.875v-1.125l-2.1-9.675h-5.1v3.6h2.4l-3.562499 3.675-3.6375009-3.675h2.3624999l0.075-3.6h2.3625v-4.8h3.6c0.6648 0 1.200001-0.5352 1.200001-1.2s-0.535201-1.2-1.200001-1.2z" style="fill-rule:evenodd;fill:#ffffff"/>
</svg>

<?xml version="1.0" encoding="UTF-8" standalone="no"?>
<!-- Created with Inkscape (http://www.inkscape.org/) -->

<svg
   xmlns:dc="http://purl.org/dc/elements/1.1/"
   xmlns:cc="http://creativecommons.org/ns#"
   xmlns:rdf="http://www.w3.org/1999/02/22-rdf-syntax-ns#"
   xmlns:svg="http://www.w3.org/2000/svg"
   xmlns="http://www.w3.org/2000/svg"
   xmlns:xlink="http://www.w3.org/1999/xlink"
   xmlns:sodipodi="http://sodipodi.sourceforge.net/DTD/sodipodi-0.dtd"
   xmlns:inkscape="http://www.inkscape.org/namespaces/inkscape"
   version="1.1"
   width="24"
   height="24"
   id="svg3738"
   inkscape:version="0.92.3 (unknown)"
   sodipodi:docname="transmission-tray-icon.svg">
  <metadata
     id="metadata13">
    <rdf:RDF>
      <cc:Work
         rdf:about="">
        <dc:format>image/svg+xml</dc:format>
        <dc:type
           rdf:resource="http://purl.org/dc/dcmitype/StillImage" />
        <dc:title></dc:title>
      </cc:Work>
    </rdf:RDF>
  </metadata>
  <sodipodi:namedview
     pagecolor="#ffffff"
     bordercolor="#666666"
     borderopacity="1"
     objecttolerance="10"
     gridtolerance="10"
     guidetolerance="10"
     inkscape:pageopacity="0"
     inkscape:pageshadow="2"
     inkscape:window-width="1920"
     inkscape:window-height="1013"
     id="namedview11"
     showgrid="false"
     inkscape:zoom="13.409091"
     inkscape:cx="8.7610415"
     inkscape:cy="11"
     inkscape:window-x="0"
     inkscape:window-y="34"
     inkscape:window-maximized="1"
     inkscape:current-layer="svg3738" />
  <defs
     id="defs3740">
    <linearGradient
       x1="40.497971"
       y1="6.1016951"
       x2="40.497971"
       y2="21.101694"
       id="linearGradient2860-8"
       xlink:href="#linearGradient3587-6-5-9"
       gradientUnits="userSpaceOnUse"
       gradientTransform="translate(-28.497469,6.8983051)" />
    <linearGradient
       id="linearGradient3587-6-5-9">
      <stop
         id="stop3589-9-2-0"
         style="stop-color:#000000;stop-opacity:1"
         offset="0" />
      <stop
         id="stop3591-7-4-6"
         style="stop-color:#363636;stop-opacity:1"
         offset="1" />
    </linearGradient>
    <linearGradient
       id="linearGradient3678">
      <stop
         style="stop-color:#ffffff;stop-opacity:1;"
         offset="0"
         id="stop3680" />
      <stop
         style="stop-color:#e6e6e6;stop-opacity:1;"
         offset="1"
         id="stop3682" />
    </linearGradient>
    <linearGradient
       gradientTransform="matrix(-0.4100229,0,0,0.5447147,78.029995,-3.8459034)"
       gradientUnits="userSpaceOnUse"
       xlink:href="#linearGradient3678"
       id="linearGradient2388"
       y2="38.279892"
       x2="159.68553"
       y1="14.403693"
       x1="159.68553" />
  </defs>
  <path
     style="color:#000000;display:inline;overflow:visible;visibility:visible;opacity:1;fill:#ffffff;fill-opacity:1;fill-rule:evenodd;stroke:none;stroke-width:1.20000005;marker:none;enable-background:accumulate"
     id="path3712"
     d="m 7.1750001,4 c -0.6648001,0 -1.2,0.5352 -1.2,1.2 0,0.6648 0.5351999,1.2 1.2,1.2 H 10.8125 l -0.075,4.8 H 5.7500001 L 3.5,20.8 V 22 h 16.875 v -1.125 l -2.1,-9.675 h -5.1 v 3.6 h 2.4 L 12.012501,18.475 8.3750001,14.8 H 10.7375 l 0.075,-3.6 H 13.175 V 6.4 h 3.6 c 0.6648,0 1.200001,-0.5352 1.200001,-1.2 C 17.975001,4.5352 17.4398,4 16.775,4 Z"
     inkscape:connector-curvature="0" />
</svg>
